X:1
T:We’re Going Home Tomorrow
T:Philip Paul Bliss
T:We’re Going Home Tomorrow
T:Public Domain
T:Public Domain
C:Philip Paul Bliss
Z:Public Domain
%%score ( 1 2 ) ( 3 4 )
L:1/8
M:4/4
K:G
V:1 treble 
V:2 treble 
V:3 bass 
V:4 bass 
V:1
 D2 | B3 ^A B2 G2 | G3 A G2 E2 | D2 G2 G2 B2 | B2 A4 D2 | B3 A B2 G2 | G3 A G2 E2 | D2 G2 B3 A | %8
w: 1.~We’re|go- ing home, no|more to roam, No|more to sin and|sor- row; No|more to wear the|brow of care, We’re|go- ing home to-|
w: 2.~For|wea- ry feet a-|waits a street Of|wond- rous pave and|gold- en; For|hearts that ache, the|an- gels wake The|sto- ry, sweet and|
w: 3.~For|those who sleep, and|those who weep, A-|bove the por- tals|nar- row, The|man- sions rise be-|yond the skies— We’re|go- ing home to-|
w: 4.~Oh,|joy- ful song! Oh,|ran- somed throng! Where|sin no more shall|sev- er; Our|king to see, and,|oh, to be With|Him at home for-|
 A2 G4 ||"^Refrain" [GB]2 | [Bd]6 [GB]2 | [GB]6 G2 | [FA]3 [FA] [FA]2 [Ac]2 | [Ac]2 [GB]4 [GB]2 | %14
w: mor- row.||||||
w: old- en.|We’re|go- ing|home, we’re|ing home to- mor-|row, We’re go-|
w: mor- row.||||||
w: ev- er!||||||
 [Bd]6 [GB]2 | [GB]6 G2 | [FA]2 [FA]2 [FB]3 [FA] | [FA]2 G4 |] %18
w: ||||
w: ing home,|we’re go-|home to- mor- row.||
w: ||||
w: ||||
V:2
 x2 | x8 | x8 | x8 | x8 | x8 | x8 | x8 | x6 || x2 | x8 | x6 G2 | x8 | x8 | x8 | x6 G2 | x8 | %17
w: |||||||||||||||||
w: |||||||||||go-||||ing||
 x2 G4 |] %18
w: |
w: |
V:3
 z2 | G,2 [B,D]2 [B,D]2 [B,D]2 | C,2 [E,G,C]2 [E,G,C]2 [E,G,C]2 | G,,2 [D,G,B,]2 B,,2 [D,G,B,]2 | %4
w: |~ ~ ~ ~|~ ~ ~ ~|~ ~ ~ ~|
 D,2 [F,A,D]2 [F,A,D]2 z2 | G,2 [B,D]2 [B,D]2 [B,D]2 | C,2 [E,G,C]2 [E,G,C]2 [E,G,C]2 | %7
w: ~ ~ ~|~ ~ ~ ~|~ ~ ~ ~|
 D,2 [G,B,]2 D,2 [F,D]2 | [D,F,A,C]2 [G,B,]4 || G,2 | G,2 [D,G,]2 G,2 [G,B,]2 | %11
w: ~ ~ ~ ~|~ ~|We’re|ing home, we’re go-|
 [G,D]2 [G,B,]2 [G,D]2 [G,B,]2 | [D,D]3 [D,D] [D,D]2 [D,D]2 | [G,D]2 [G,D]4 [G,B,]2 | %14
w: we’re go- ing home|to- mor- row, We’re|go- ing home,|
 G,2 [D,G,]2 G,2 [G,B,]2 | [G,D]2 [G,B,]2 [G,D]2 [G,B,]2 | [D,D]2 [D,D]2 [D,D]3 [D,C] | %17
w: we’re go- ing home,|ing home to- mor-|row. * * *|
 [D,C]2 [G,,B,]4 |] %18
w: |
V:4
 x2 | x8 | x8 | x8 | x8 | x8 | x8 | x8 | x6 || G,2 | G,2 G,2 x4 | x8 | x8 | x8 | G,2 G,2 x4 | x8 | %16
w: |||||||||go-|ing home,||||we’re go-||
 x8 | x6 |] %18
w: ||

